app/img/m-logo-5.svg

<svg width="30" height="37" viewBox="0 0 30 37" fill="none" xmlns="http://www.w3.org/2000/svg">
<path fill-rule="evenodd" clip-rule="evenodd" d="M22.2536 15.6956C21.4397 15.6956 21.7449 19.3084 19.7421 20.5872C18.9664 21.0796 17.8029 21.9237 17.8029 22.7293C17.8029 27.8959 19.0745 27.8448 19.0745 27.8448V36.7968H0C0 36.7968 0 32.7108 1.90745 31.0419C3.33168 29.7631 5.30907 29.6352 6.99398 29.1236C8.09365 28.8057 9.15872 28.3772 10.1731 27.8448C10.1731 27.8448 11.3175 27.3524 11.3175 22.7293C11.3175 21.4824 9.58811 21.3737 9.04131 20.0309C8.49451 18.6881 7.61072 16.1944 6.35817 15.6828C4.71776 15.0434 5.08653 14.0523 5.08653 13.1251C5.08653 11.5521 6.99398 12.4857 6.99398 12.4857V4.81253H22.2536V12.4857C22.2536 12.4857 24.161 11.1045 24.161 12.4857C24.161 13.7006 24.4281 15.6956 22.2536 15.6956Z" fill="white"/>
<path fill-rule="evenodd" clip-rule="evenodd" d="M19.0744 36.7968H15.2595C15.2595 36.7968 14.8272 22.416 15.2595 22.0899C17.0716 20.7087 19.5767 16.4949 19.7103 13.1379C19.8883 8.60431 17.167 4.82529 17.167 4.82529H22.2535V12.4984C22.2535 12.4984 24.161 11.1173 24.161 12.4984C24.161 13.7006 24.428 15.6956 22.2535 15.6956C21.4397 15.6956 21.7449 19.3084 19.742 20.5872C18.9664 21.0796 17.8028 21.9236 17.8028 22.7293C17.8028 27.8959 19.0744 27.8447 19.0744 27.8447C20.0888 28.3772 21.1538 28.8057 22.2535 29.1236C23.9194 29.6032 25.8967 29.763 27.34 31.0419C29.2475 32.7108 29.2475 36.7968 29.2475 36.7968H19.0744Z" fill="#F1EEE9"/>
<path fill-rule="evenodd" clip-rule="evenodd" d="M22.2535 11.859C22.2535 12.2107 22.1137 12.5432 22.4634 12.5432C22.8592 12.3887 23.2202 12.1561 23.5252 11.859C23.9692 10.8536 24.1864 9.76171 24.161 8.66185C24.0974 8.12473 24.7968 8.41248 24.7968 8.02242C24.7968 6.15529 24.3326 7.84978 24.161 7.383C23.913 6.71159 23.7413 5.46471 23.5252 4.82528C22.4506 1.71765 20.9819 2.40184 20.3461 1.62813C20.079 1.28284 20.1108 0.349274 19.0744 0.349274C18.7629 0.349274 19.0744 1.62813 19.0744 1.62813C19.0744 1.62813 16.5312 -0.577899 10.173 0.988703C6.77777 1.81996 5.63966 4.12191 5.26453 5.72048C5.13736 6.2576 4.45068 5.41355 4.45068 7.383C4.45068 7.6068 5.0865 6.74357 5.0865 6.74357C4.99111 7.80712 4.99111 8.87715 5.0865 9.94071C5.16254 10.6179 5.37915 11.2714 5.72232 11.859C5.86855 12.1531 6.11653 12.2171 6.42172 12.3322C6.56795 12.3833 6.89857 12.6071 6.99395 12.4984C7.08932 12.3897 6.94308 11.9933 6.99395 11.859C6.99395 11.859 7.26099 11.9549 8.39274 11.4498C9.39097 11.0022 9.93142 10.5801 10.8088 10.5801C11.2221 10.5801 12.8625 9.88316 12.1313 10.4075C11.5718 10.8103 10.4719 11.1812 10.8088 11.2196C11.7371 11.3219 13.7272 10.8231 15.1705 10.1517C16.0734 9.73609 16.3786 9.25013 17.2751 8.80253C17.7837 8.54676 18.2733 8.91763 18.7375 8.63628C19.9264 7.91372 20.7975 6.71799 20.9819 6.71799C21.446 6.71799 21.1154 7.68353 21.3062 8.78334C21.5217 9.83713 21.839 10.8672 22.2535 11.859Z" fill="#39322B"/>
<path fill-rule="evenodd" clip-rule="evenodd" d="M10.1667 11.6799C9.50922 11.6017 8.86661 11.4272 8.25928 11.162C8.4999 10.9088 8.80487 10.7266 9.14112 10.6353C9.47737 10.544 9.83206 10.547 10.1667 10.6441C11.3557 10.919 12.9516 11.2835 12.71 11.6799C12.5065 11.9805 11.0696 11.8206 10.1667 11.6799Z" fill="#39322B"/>
<path fill-rule="evenodd" clip-rule="evenodd" d="M19.0808 11.6799C19.7383 11.6017 20.381 11.4272 20.9883 11.162C20.7477 10.9088 20.4427 10.7266 20.1064 10.6353C19.7702 10.544 19.4155 10.547 19.0808 10.6441C17.8919 10.919 16.296 11.2835 16.5376 11.6799C16.741 11.9805 18.178 11.8206 19.0808 11.6799Z" fill="#39322B"/>
<path fill-rule="evenodd" clip-rule="evenodd" d="M14.6046 18.2533C15.8763 18.2533 15.8763 17.8824 15.8763 17.8824V18.573C15.8763 18.6578 15.8428 18.7391 15.7832 18.7991C15.7236 18.859 15.6427 18.8927 15.5584 18.8927H13.6509C13.5666 18.8927 13.4857 18.859 13.4261 18.7991C13.3665 18.7391 13.333 18.6578 13.333 18.573V17.8824C13.333 17.8824 13.3267 18.2533 14.6046 18.2533Z" fill="#F1EEE9"/>
<path fill-rule="evenodd" clip-rule="evenodd" d="M10.8088 26.5659L13.9879 29.1236H15.2595L18.4386 26.5659L20.3461 28.4841L18.4386 32.3207L15.8953 29.763H13.3521L10.8088 32.3207L8.90137 28.4841L10.8088 26.5659Z" fill="#009F90"/>
<path fill-rule="evenodd" clip-rule="evenodd" d="M13.3521 29.763L13.9879 29.1236H15.2596L15.8954 29.763V30.4024L15.2596 31.0419L16.5312 36.7967H12.7163L13.9879 31.0419L13.3521 30.4024V29.763Z" fill="#006C71"/>
</svg>

<svg width="30" height="37" fill="none" xmlns="http://www.w3.org/2000/svg"><path fill-rule="evenodd" clip-rule="evenodd" d="M22.254 15.696c-.814 0-.51 3.612-2.512 4.891-.776.493-1.94 1.337-1.94 2.142 0 5.167 1.273 5.116 1.273 5.116v8.952H0s0-4.086 1.907-5.755c1.425-1.279 3.402-1.407 5.087-1.918a17 17 0 003.18-1.28s1.144-.492 1.144-5.115c0-1.247-1.73-1.355-2.277-2.698-.546-1.343-1.43-3.837-2.683-4.348-1.64-.64-1.271-1.63-1.271-2.558 0-1.573 1.907-.64 1.907-.64V4.814h15.26v7.673s1.907-1.382 1.907 0c0 1.215.267 3.21-1.907 3.21z" fill="#fff"/><path fill-rule="evenodd" clip-rule="evenodd" d="M19.074 36.797H15.26s-.432-14.381 0-14.707c1.813-1.381 4.318-5.595 4.451-8.952.178-4.534-2.543-8.313-2.543-8.313h5.086v7.673s1.908-1.38 1.908 0c0 1.203.267 3.198-1.908 3.198-.813 0-.508 3.612-2.511 4.891-.776.493-1.94 1.337-1.94 2.142 0 5.167 1.272 5.116 1.272 5.116 1.015.532 2.08.96 3.18 1.279 1.665.48 3.643.639 5.086 1.918 1.907 1.669 1.907 5.755 1.907 5.755H19.075z" fill="#F1EEE9"/><path fill-rule="evenodd" clip-rule="evenodd" d="M22.253 11.859c0 .352-.14.684.21.684a3.178 3.178 0 001.062-.684 7.487 7.487 0 00.636-3.197c-.064-.537.636-.25.636-.64 0-1.867-.464-.172-.636-.639-.248-.671-.42-1.918-.636-2.558-1.074-3.107-2.543-2.423-3.179-3.197C20.08 1.283 20.111.35 19.074.35c-.311 0 0 1.28 0 1.28s-2.543-2.207-8.901-.64C6.778 1.82 5.64 4.122 5.265 5.72c-.128.538-.814-.306-.814 1.663 0 .224.636-.64.636-.64a17.895 17.895 0 000 3.198c.076.677.292 1.33.635 1.918.147.294.395.358.7.473.146.051.477.275.572.166.095-.108-.05-.505 0-.639 0 0 .267.096 1.399-.41.998-.447 1.538-.869 2.416-.869.413 0 2.054-.697 1.322-.172-.56.402-1.66.773-1.322.812.928.102 2.918-.397 4.362-1.068.902-.416 1.208-.902 2.104-1.35.509-.255.998.116 1.463-.166 1.188-.722 2.06-1.918 2.244-1.918.464 0 .133.966.324 2.065.216 1.054.533 2.084.947 3.076z" fill="#39322B"/><path fill-rule="evenodd" clip-rule="evenodd" d="M10.167 11.68a6.762 6.762 0 01-1.908-.518 1.906 1.906 0 011.908-.518c1.189.275 2.785.64 2.543 1.036-.204.3-1.64.14-2.543 0zM19.08 11.68a6.762 6.762 0 001.908-.518 1.905 1.905 0 00-1.907-.518c-1.19.275-2.785.64-2.543 1.036.203.3 1.64.14 2.543 0z" fill="#39322B"/><path fill-rule="evenodd" clip-rule="evenodd" d="M14.605 18.253c1.271 0 1.271-.37 1.271-.37v.69a.32.32 0 01-.318.32h-1.907a.317.317 0 01-.318-.32v-.69s-.006.37 1.272.37z" fill="#F1EEE9"/><path fill-rule="evenodd" clip-rule="evenodd" d="M10.809 26.566l3.179 2.558h1.271l3.18-2.558 1.907 1.918-1.907 3.837-2.544-2.558h-2.543l-2.543 2.558L8.9 28.484l1.908-1.918z" fill="#009F90"/><path fill-rule="evenodd" clip-rule="evenodd" d="M13.352 29.763l.636-.64h1.272l.635.64v.64l-.635.639 1.271 5.755h-3.815l1.272-5.755-.636-.64v-.639z" fill="#006C71"/></svg>
